X: 97
T:Mick Collins' Reel
M:C|
L:1/8
R:Reel
K:C
B[|c2AG EDEG|c2AB cded|cE~E2 EDEG|ABAG ^FGAB|!
c2AG EDEG|c2AB cded|cE~E2 EDEG|ABAG ^FGAB|]!
c2gc acgc|c2gc efge|c2gc acgc|dfed cAAB|!
c2gc acgc|c2gc efge|a2^gb a=ged|cded cAAB|]!
